svgs/libretube.svg

<svg width="192" height="192" viewBox="0 0 192 192" fill="none" xmlns="http://www.w3.org/2000/svg"><path d="M168.356 92.58 48.073 19.68C45.407 18.066 42 19.985 42 23.103v30.645a4 4 0 0 0 1.927 3.42l58.429 35.412c2.569 1.557 2.569 5.285 0 6.842l-58.43 35.411a4 4 0 0 0-1.926 3.42v30.645c0 3.118 3.407 5.037 6.073 3.421l120.283-72.898c2.569-1.557 2.569-5.285 0-6.842Z" stroke="#000" stroke-width="12"/><path d="M36 113.449V78.551c0-1.559 1.704-2.518 3.037-1.71l28.79 17.449c1.285.778 1.285 2.642 0 3.42l-28.79 17.45c-1.333.807-3.037-.152-3.037-1.711Z" fill="#000"/></svg>

<?xml version="1.0" encoding="UTF-8" standalone="no"?><svg xmlns:android="http://schemas.android.com/apk/res/android" height="192" width="192" xmlns="http://www.w3.org/2000/svg">
  <path d="M168.36,92.58L48.07,19.68C45.41,18.07 42,19.98 42,23.1V53.75C42,55.15 42.73,56.44 43.93,57.17L102.36,92.58C104.93,94.14 104.93,97.86 102.36,99.42L43.93,134.83C42.73,135.56 42,136.85 42,138.25V168.9C42,172.02 45.41,173.93 48.07,172.32L168.36,99.42C170.93,97.86 170.93,94.14 168.36,92.58Z" fill="#000000" fill-opacity="0.0" stroke="#000000" stroke-width="12"/>
  <path d="M36,113.45V78.55C36,76.99 37.7,76.03 39.04,76.84L67.83,94.29C69.11,95.07 69.11,96.93 67.83,97.71L39.04,115.16C37.7,115.97 36,115.01 36,113.45Z" fill="#000000"/>
</svg>
